SVG_Azure_All/Storage Sync Registered Server.svg

<?xml version="1.0" encoding="UTF-8" standalone="no"?>
<!-- Generated by Microsoft Visio, SVG Export Storage Sync Registered Server.svg Page-1 -->

<svg
   xmlns:dc="http://purl.org/dc/elements/1.1/"
   xmlns:cc="http://creativecommons.org/ns#"
   xmlns:rdf="http://www.w3.org/1999/02/22-rdf-syntax-ns#"
   xmlns:svg="http://www.w3.org/2000/svg"
   xmlns="http://www.w3.org/2000/svg"
   xmlns:sodipodi="http://sodipodi.sourceforge.net/DTD/sodipodi-0.dtd"
   xmlns:inkscape="http://www.inkscape.org/namespaces/inkscape"
   width="0.74798644in"
   height="0.78744489in"
   viewBox="0 0 53.855121 56.69632"
   xml:space="preserve"
   class="st8"
   version="1.1"
   id="svg104"
   sodipodi:docname="Storage Sync Registered Server.svg"
   style="font-size:12px;overflow:visible;color-interpolation-filters:sRGB;fill:none;fill-rule:evenodd;stroke-linecap:square;stroke-miterlimit:3"
   inkscape:version="0.92.5 (2060ec1f9f, 2020-04-08)"><metadata
   id="metadata110"><rdf:RDF><cc:Work
       rdf:about=""><dc:format>image/svg+xml</dc:format><dc:type
         rdf:resource="http://purl.org/dc/dcmitype/StillImage" /></cc:Work></rdf:RDF></metadata><defs
   id="defs108" /><sodipodi:namedview
   pagecolor="#ffffff"
   bordercolor="#666666"
   borderopacity="1"
   objecttolerance="10"
   gridtolerance="10"
   guidetolerance="10"
   inkscape:pageopacity="0"
   inkscape:pageshadow="2"
   inkscape:window-width="640"
   inkscape:window-height="480"
   id="namedview106"
   showgrid="false"
   inkscape:zoom="1.7193066"
   inkscape:cx="35.905348"
   inkscape:cy="23.279613"
   inkscape:window-x="0"
   inkscape:window-y="0"
   inkscape:window-maximized="0"
   inkscape:current-layer="svg104" />
	<style
   type="text/css"
   id="style2">
	<![CDATA[
		.st1 {fill:#7a7a7a;stroke:none;stroke-linecap:butt;stroke-width:12.24}
		.st2 {fill:#1e1e1e;stroke:none;stroke-linecap:butt;stroke-width:12.24}
		.st3 {fill:#b8d432;stroke:none;stroke-linecap:butt;stroke-width:12.24}
		.st4 {fill:#ffffff;fill-opacity:0.5;stroke:none;stroke-linecap:butt;stroke-width:12.24}
		.st5 {fill:#0072c6;stroke:none;stroke-linecap:butt;stroke-width:12.24}
		.st6 {fill:#ffffff;fill-opacity:0.15;stroke:none;stroke-linecap:butt;stroke-width:12.24}
		.st7 {fill:#ffffff;stroke:none;stroke-linecap:butt;stroke-width:12.24}
		.st8 {fill:none;fill-rule:evenodd;font-size:12px;overflow:visible;stroke-linecap:square;stroke-miterlimit:3}
	]]>
	</style>

	<g
   id="g102"
   transform="translate(-12.240131,-12.237979)">
		<title
   id="title4">Page-1</title>
		<g
   id="group858-1"
   transform="translate(12.24,-34.0157)">
			<title
   id="title6">Storage Sync Registered Server</title>
			<g
   id="group859-2">
				<title
   id="title8">Sheet.859</title>
				<g
   id="shape860-3"
   transform="translate(0,-13.6063)">
					<title
   id="title10">Sheet.860</title>
					<path
   d="m 13.46,68.79 c 0,-1.79 1.47,-3.26 3.26,-3.26 h 6.84 V 61.99 A 2.12067,2.14299 -180 0 0 21.43,59.86 H 2.14 C 0.96,59.86 0,60.82 0,61.99 v 38.83 c 0,1.18 0.96,2.13 2.14,2.13 h 11.32 z"
   class="st1"
   id="path12"
   inkscape:connector-curvature="0"
   style="fill:#7a7a7a;stroke:none;stroke-width:12.23999977;stroke-linecap:butt" />
				</g>
				<g
   id="shape861-5"
   transform="translate(3.47835,-31.8694)">
					<title
   id="title15">Sheet.861</title>
					<path
   d="m 9.99,97.52 h -7.3 a 2.68955,2.71786 -180 0 0 -2.69,2.72 2.68955,2.71786 -180 0 0 2.69,2.71 h 7.3 z"
   class="st2"
   id="path17"
   inkscape:connector-curvature="0"
   style="fill:#1e1e1e;stroke:none;stroke-width:12.23999977;stroke-linecap:butt" />
				</g>
				<g
   id="shape862-7"
   transform="translate(4.62844,-32.7606)">
					<title
   id="title20">Sheet.862</title>
					<ellipse
   cx="1.80313"
   cy="101.127"
   rx="1.80313"
   ry="1.8221101"
   class="st3"
   id="ellipse22"
   style="fill:#b8d432;stroke:none;stroke-width:12.23999977;stroke-linecap:butt" />
				</g>
				<g
   id="shape863-9"
   transform="translate(3.47835,-39.8064)">
					<title
   id="title25">Sheet.863</title>
					<path
   d="m 9.99,97.52 h -7.3 c -1.48,0 -2.69,1.22 -2.69,2.72 0,1.49 1.21,2.71 2.69,2.71 h 7.3 z"
   class="st2"
   id="path27"
   inkscape:connector-curvature="0"
   style="fill:#1e1e1e;stroke:none;stroke-width:12.23999977;stroke-linecap:butt" />
				</g>
				<g
   id="shape864-11"
   transform="translate(4.62844,-40.6976)">
					<title
   id="title30">Sheet.864</title>
					<ellipse
   cx="1.80313"
   cy="101.127"
   rx="1.80313"
   ry="1.8221101"
   class="st3"
   id="ellipse32"
   style="fill:#b8d432;stroke:none;stroke-width:12.23999977;stroke-linecap:butt" />
				</g>
				<g
   id="shape865-13"
   transform="translate(3.47835,-47.7422)">
					<title
   id="title35">Sheet.865</title>
					<path
   d="m 9.99,102.93 c 0,-1.8 1.46,-3.26 3.25,-3.26 h 3.3 A 2.69291,2.72126 -180 0 0 13.91,97.52 H 2.69 c -1.48,0 -2.69,1.22 -2.69,2.71 0,1.5 1.21,2.72 2.69,2.72 h 7.3 z"
   class="st2"
   id="path37"
   inkscape:connector-curvature="0"
   style="fill:#1e1e1e;stroke:none;stroke-width:12.23999977;stroke-linecap:butt" />
				</g>
				<g
   id="shape866-15"
   transform="translate(4.62844,-48.6346)">
					<title
   id="title40">Sheet.866</title>
					<ellipse
   cx="1.80313"
   cy="101.127"
   rx="1.80313"
   ry="1.8221101"
   class="st3"
   id="ellipse42"
   style="fill:#b8d432;stroke:none;stroke-width:12.23999977;stroke-linecap:butt" />
				</g>
				<g
   id="shape867-17"
   transform="translate(14.5866,-6.80315)">
					<title
   id="title45">Sheet.867</title>
					<path
   d="m 23.56,100.82 c 0,1.18 -0.95,2.13 -2.13,2.13 H 2.14 C 0.96,102.95 0,102 0,100.82 V 61.99 c 0,-1.17 0.96,-2.13 2.14,-2.13 h 19.29 a 2.12067,2.14299 0 0 1 2.13,2.13 z"
   class="st1"
   id="path47"
   inkscape:connector-curvature="0"
   style="fill:#7a7a7a;stroke:none;stroke-width:12.23999977;stroke-linecap:butt" />
				</g>
				<g
   id="shape868-19"
   transform="translate(18.065,-25.0662)">
					<title
   id="title50">Sheet.868</title>
					<path
   d="m 0,100.24 a 2.68955,2.71786 0 0 1 2.69,-2.72 h 11.22 a 2.68955,2.71786 0 0 1 2.7,2.72 2.68955,2.71786 0 0 1 -2.7,2.71 H 2.69 A 2.68955,2.71786 0 0 1 0,100.24 Z"
   class="st2"
   id="path52"
   inkscape:connector-curvature="0"
   style="fill:#1e1e1e;stroke:none;stroke-width:12.23999977;stroke-linecap:butt" />
				</g>
				<g
   id="shape869-21"
   transform="translate(19.2151,-25.9574)">
					<title
   id="title55">Sheet.869</title>
					<ellipse
   cx="1.80313"
   cy="101.127"
   rx="1.80313"
   ry="1.8221101"
   class="st3"
   id="ellipse57"
   style="fill:#b8d432;stroke:none;stroke-width:12.23999977;stroke-linecap:butt" />
				</g>
				<g
   id="shape870-23"
   transform="translate(18.065,-33.0032)">
					<title
   id="title60">Sheet.870</title>
					<path
   d="m 0,100.24 a 2.68955,2.71786 0 0 1 2.69,-2.72 h 11.22 a 2.68955,2.71786 0 0 1 2.7,2.72 2.68955,2.71786 0 0 1 -2.7,2.71 H 2.69 A 2.68955,2.71786 0 0 1 0,100.24 Z"
   class="st2"
   id="path62"
   inkscape:connector-curvature="0"
   style="fill:#1e1e1e;stroke:none;stroke-width:12.23999977;stroke-linecap:butt" />
				</g>
				<g
   id="shape871-25"
   transform="translate(19.2151,-33.8944)">
					<title
   id="title65">Sheet.871</title>
					<ellipse
   cx="1.80313"
   cy="101.127"
   rx="1.80313"
   ry="1.8221101"
   class="st3"
   id="ellipse67"
   style="fill:#b8d432;stroke:none;stroke-width:12.23999977;stroke-linecap:butt" />
				</g>
				<g
   id="shape872-27"
   transform="translate(18.065,-40.9402)">
					<title
   id="title70">Sheet.872</title>
					<path
   d="m 0,100.24 a 2.68955,2.71786 0 0 1 2.69,-2.72 h 11.22 a 2.68955,2.71786 0 0 1 2.7,2.72 2.68955,2.71786 0 0 1 -2.7,2.71 H 2.69 A 2.68843,2.71672 0 0 1 0,100.24 Z"
   class="st2"
   id="path72"
   inkscape:connector-curvature="0"
   style="fill:#1e1e1e;stroke:none;stroke-width:12.23999977;stroke-linecap:butt" />
				</g>
				<g
   id="shape873-29"
   transform="translate(19.2151,-41.8314)">
					<title
   id="title75">Sheet.873</title>
					<ellipse
   cx="1.80313"
   cy="101.127"
   rx="1.80313"
   ry="1.8221101"
   class="st3"
   id="ellipse77"
   style="fill:#b8d432;stroke:none;stroke-width:12.23999977;stroke-linecap:butt" />
				</g>
				<g
   id="shape874-31"
   transform="translate(29.1732,-6.80315)">
					<title
   id="title80">Sheet.874</title>
					<path
   d="M 8.98,100.82 V 81.18 C 7.31,81.92 4.82,82.54 1.12,82.54 H 0 v 15.69 c 0,1.56 0.58,3.14 1.71,4.72 h 5.13 c 1.18,0 2.14,-0.95 2.14,-2.13 z"
   class="st4"
   id="path82"
   inkscape:connector-curvature="0"
   style="fill:#ffffff;fill-opacity:0.5;stroke:none;stroke-width:12.23999977;stroke-linecap:butt" />
				</g>
				<g
   id="shape875-33"
   transform="translate(30.2953)">
					<title
   id="title85">Sheet.875</title>
					<path
   d="m 11.78,72.33 c 0,0 -1.67,4.54 -11.78,4.54 v 14.56 c 0,1.96 1.11,3.8 2.64,5.41 3.47,3.65 9.14,6.11 9.14,6.11 0,0 11.78,-5.1 11.78,-11.52 V 76.87 c -10.09,0 -11.78,-4.54 -11.78,-4.54 z"
   class="st5"
   id="path87"
   inkscape:connector-curvature="0"
   style="fill:#0072c6;stroke:none;stroke-width:12.23999977;stroke-linecap:butt" />
				</g>
				<g
   id="shape876-35"
   transform="translate(30.2953,-5.90967)">
					<title
   id="title90">Sheet.876</title>
					<path
   d="m 19.77,82.52 c -6.73,-0.94 -7.99,-4.28 -7.99,-4.28 0,0 -1.67,4.54 -11.78,4.54 v 14.55 c 0,2.12 1.08,4.01 2.59,5.62 z"
   class="st6"
   id="path92"
   inkscape:connector-curvature="0"
   style="fill:#ffffff;fill-opacity:0.15;stroke:none;stroke-width:12.23999977;stroke-linecap:butt" />
				</g>
				<g
   id="shape877-37"
   transform="translate(34.305,-7.73291)">
					<title
   id="title95">Sheet.877</title>
					<path
   d="M 0.62,96.65 0.1,96.09 A 0.370276,0.374173 0 0 1 0.1213189,95.560488 L 1.61,94.16 A 0.365787,0.369638 0 0 1 1.857972,94.06022 C 1.97,94.06 2.06,94.11 2.13,94.19 l 4.11,4.45 7.07,-9.15 a 0.362421,0.366236 0 0 1 0.29061,-0.142866 C 13.69,89.34 13.77,89.37 13.83,89.42 l 1.62,1.26 c 0.08,0.06 0.12,0.14 0.14,0.25 a 0.360177,0.363969 0 0 1 -0.07854,0.272126 L 6.42,102.95 Z"
   class="st7"
   id="path97"
   inkscape:connector-curvature="0"
   style="fill:#ffffff;stroke:none;stroke-width:12.23999977;stroke-linecap:butt" />
				</g>
			</g>
		</g>
	</g>
</svg>

<?xml version="1.0" encoding="UTF-8" standalone="no"?>
<!DOCTYPE svg PUBLIC "-//W3C//DTD SVG 1.1//EN" "http://www.w3.org/Graphics/SVG/1.1/DTD/svg11.dtd">
<!-- Generated by Microsoft Visio, SVG Export Storage Sync Registered Server.svg Page-1 -->
<svg xmlns="http://www.w3.org/2000/svg" xmlns:xlink="http://www.w3.org/1999/xlink" xmlns:ev="http://www.w3.org/2001/xml-events"
		width="1.08803in" height="1.42984in" viewBox="0 0 78.3383 102.949" xml:space="preserve" color-interpolation-filters="sRGB"
		class="st8">
	<style type="text/css">
	<![CDATA[
		.st1 {fill:#7a7a7a;stroke:none;stroke-linecap:butt;stroke-width:12.24}
		.st2 {fill:#1e1e1e;stroke:none;stroke-linecap:butt;stroke-width:12.24}
		.st3 {fill:#b8d432;stroke:none;stroke-linecap:butt;stroke-width:12.24}
		.st4 {fill:#ffffff;fill-opacity:0.5;stroke:none;stroke-linecap:butt;stroke-width:12.24}
		.st5 {fill:#0072c6;stroke:none;stroke-linecap:butt;stroke-width:12.24}
		.st6 {fill:#ffffff;fill-opacity:0.15;stroke:none;stroke-linecap:butt;stroke-width:12.24}
		.st7 {fill:#ffffff;stroke:none;stroke-linecap:butt;stroke-width:12.24}
		.st8 {fill:none;fill-rule:evenodd;font-size:12px;overflow:visible;stroke-linecap:square;stroke-miterlimit:3}
	]]>
	</style>

	<g>
		<title>Page-1</title>
		<g id="group843-1" transform="translate(12.24,-34.0157)">
			<title>Storage Sync Registered Server</title>
			<g id="group844-2">
				<title>Sheet.844</title>
				<g id="shape845-3" transform="translate(0,-13.6063)">
					<title>Sheet.845</title>
					<path d="M13.46 68.79 C13.46 67 14.93 65.53 16.72 65.53 L23.56 65.53 L23.56 61.99 A2.12067 2.14299 -180 0 0 21.43
								 59.86 L2.14 59.86 C0.96 59.86 0 60.82 0 61.99 L0 100.82 C0 102 0.96 102.95 2.14 102.95 L13.46 102.95
								 L13.46 68.79 Z" class="st1"/>
				</g>
				<g id="shape846-5" transform="translate(3.47835,-31.8694)">
					<title>Sheet.846</title>
					<path d="M9.99 97.52 L2.69 97.52 A2.68955 2.71786 -180 0 0 0 100.24 A2.68955 2.71786 -180 0 0 2.69 102.95 L9.99
								 102.95 L9.99 97.52 Z" class="st2"/>
				</g>
				<g id="shape847-7" transform="translate(4.62844,-32.7606)">
					<title>Sheet.847</title>
					<ellipse cx="1.80313" cy="101.127" rx="1.80313" ry="1.82211" class="st3"/>
				</g>
				<g id="shape848-9" transform="translate(3.47835,-39.8064)">
					<title>Sheet.848</title>
					<path d="M9.99 97.52 L2.69 97.52 C1.21 97.52 0 98.74 0 100.24 C0 101.73 1.21 102.95 2.69 102.95 L9.99 102.95
								 L9.99 97.52 Z" class="st2"/>
				</g>
				<g id="shape849-11" transform="translate(4.62844,-40.6976)">
					<title>Sheet.849</title>
					<ellipse cx="1.80313" cy="101.127" rx="1.80313" ry="1.82211" class="st3"/>
				</g>
				<g id="shape850-13" transform="translate(3.47835,-47.7422)">
					<title>Sheet.850</title>
					<path d="M9.99 102.93 C9.99 101.13 11.45 99.67 13.24 99.67 L16.54 99.67 A2.69291 2.72126 -180 0 0 13.91 97.52
								 L2.69 97.52 C1.21 97.52 0 98.74 0 100.23 C0 101.73 1.21 102.95 2.69 102.95 L9.99 102.95 L9.99 102.93
								 Z" class="st2"/>
				</g>
				<g id="shape851-15" transform="translate(4.62844,-48.6346)">
					<title>Sheet.851</title>
					<ellipse cx="1.80313" cy="101.127" rx="1.80313" ry="1.82211" class="st3"/>
				</g>
				<g id="shape852-17" transform="translate(14.5866,-6.80315)">
					<title>Sheet.852</title>
					<path d="M23.56 100.82 C23.56 102 22.61 102.95 21.43 102.95 L2.14 102.95 C0.96 102.95 0 102 0 100.82 L0 61.99
								 C0 60.82 0.96 59.86 2.14 59.86 L21.43 59.86 A2.12067 2.14299 0 0 1 23.56 61.99 L23.56 100.82 Z"
							class="st1"/>
				</g>
				<g id="shape853-19" transform="translate(18.065,-25.0662)">
					<title>Sheet.853</title>
					<path d="M-0 100.24 A2.68955 2.71786 0 0 1 2.69 97.52 L13.91 97.52 A2.68955 2.71786 0 0 1 16.61 100.24 A2.68955
								 2.71786 0 0 1 13.91 102.95 L2.69 102.95 A2.68955 2.71786 0 0 1 0 100.24 Z" class="st2"/>
				</g>
				<g id="shape854-21" transform="translate(19.2151,-25.9574)">
					<title>Sheet.854</title>
					<ellipse cx="1.80313" cy="101.127" rx="1.80313" ry="1.82211" class="st3"/>
				</g>
				<g id="shape855-23" transform="translate(18.065,-33.0032)">
					<title>Sheet.855</title>
					<path d="M-0 100.24 A2.68955 2.71786 0 0 1 2.69 97.52 L13.91 97.52 A2.68955 2.71786 0 0 1 16.61 100.24 A2.68955
								 2.71786 0 0 1 13.91 102.95 L2.69 102.95 A2.68955 2.71786 0 0 1 0 100.24 Z" class="st2"/>
				</g>
				<g id="shape856-25" transform="translate(19.2151,-33.8944)">
					<title>Sheet.856</title>
					<ellipse cx="1.80313" cy="101.127" rx="1.80313" ry="1.82211" class="st3"/>
				</g>
				<g id="shape857-27" transform="translate(18.065,-40.9402)">
					<title>Sheet.857</title>
					<path d="M0 100.24 A2.68955 2.71786 0 0 1 2.69 97.52 L13.91 97.52 A2.68955 2.71786 0 0 1 16.61 100.24 A2.68955
								 2.71786 0 0 1 13.91 102.95 L2.69 102.95 A2.68843 2.71672 0 0 1 0 100.24 Z" class="st2"/>
				</g>
				<g id="shape858-29" transform="translate(19.2151,-41.8314)">
					<title>Sheet.858</title>
					<ellipse cx="1.80313" cy="101.127" rx="1.80313" ry="1.82211" class="st3"/>
				</g>
				<g id="shape859-31" transform="translate(29.1732,-6.80315)">
					<title>Sheet.859</title>
					<path d="M8.98 100.82 L8.98 81.18 C7.31 81.92 4.82 82.54 1.12 82.54 L0 82.54 L0 98.23 C0 99.79 0.58 101.37 1.71
								 102.95 L6.84 102.95 C8.02 102.95 8.98 102 8.98 100.82 Z" class="st4"/>
				</g>
				<g id="shape860-33" transform="translate(30.2953,0)">
					<title>Sheet.860</title>
					<path d="M11.78 72.33 C11.78 72.33 10.11 76.87 0 76.87 L0 91.43 C0 93.39 1.11 95.23 2.64 96.84 C6.11 100.49 11.78
								 102.95 11.78 102.95 C11.78 102.95 23.56 97.85 23.56 91.43 L23.56 76.87 C13.47 76.87 11.78 72.33
								 11.78 72.33 Z" class="st5"/>
				</g>
				<g id="shape861-35" transform="translate(30.2953,-5.90967)">
					<title>Sheet.861</title>
					<path d="M19.77 82.52 C13.04 81.58 11.78 78.24 11.78 78.24 C11.78 78.24 10.11 82.78 0 82.78 L0 97.33 C0 99.45
								 1.08 101.34 2.59 102.95 L19.77 82.52 Z" class="st6"/>
				</g>
				<g id="shape862-37" transform="translate(34.305,-7.73291)">
					<title>Sheet.862</title>
					<path d="M0.62 96.65 L0.1 96.09 a0.370276 0.374173 0 0 1 0.0213189 -0.529512 L1.61 94.16 a0.365787 0.369638 0
								 0 1 0.247972 -0.0997795 C1.97 94.06 2.06 94.11 2.13 94.19 L6.24 98.64 L13.31 89.49 a0.362421 0.366236
								 0 0 1 0.29061 -0.142866 C13.69 89.34 13.77 89.37 13.83 89.42 L15.45 90.68 C15.53 90.74 15.57 90.82
								 15.59 90.93 a0.360177 0.363969 0 0 1 -0.0785433 0.272126 L6.42 102.95 L0.62 96.65 Z" class="st7"/>
				</g>
			</g>
		</g>
	</g>
</svg>
